Newaita-dark/apps/32/gnome-power-statistics.svg

<svg height="32pt" viewBox="0 0 32 32" width="32pt" xmlns="http://www.w3.org/2000/svg" xmlns:xlink="http://www.w3.org/1999/xlink"><linearGradient id="a"><stop offset="0" stop-opacity=".313725"/><stop offset=".222222" stop-opacity=".27451"/><stop offset="1" stop-opacity="0"/></linearGradient><radialGradient id="b" cx="450.90894" cy="189.57936" gradientTransform="matrix(.00000017 -.0781325 -.140638 -.0000001 50.807607 63.595335)" gradientUnits="userSpaceOnUse" r="21.166656" xlink:href="#a"/><radialGradient id="c" cx="450.90894" cy="189.57936" gradientTransform="matrix(-.00000017 .0781325 .140638 .0000001 -13.762403 -7.527478)" gradientUnits="userSpaceOnUse" r="21.166656" xlink:href="#a"/><radialGradient id="d" cx="450.90894" cy="189.57936" gradientTransform="matrix(-.00000017 -.0781325 .140638 -.0000001 -13.762403 63.595335)" gradientUnits="userSpaceOnUse" r="21.166656" xlink:href="#a"/><radialGradient id="e" cx="450.90894" cy="189.57936" gradientTransform="matrix(.00000017 .0781325 -.140638 .0000001 50.807605 -7.527478)" gradientUnits="userSpaceOnUse" r="21.166656" xlink:href="#a"/><linearGradient id="f" gradientTransform="matrix(.0133601 0 0 .062506 11.473103 13.438787)" gradientUnits="userSpaceOnUse" x1="255.32306" x2="255.32304" y1="233.5" y2="254.66666"><stop offset="0" stop-opacity=".27451"/><stop offset="1" stop-opacity="0"/></linearGradient><linearGradient id="g" gradientUnits="userSpaceOnUse" x1="254" x2="254" y1="-168.66667" y2="233.5"><stop offset="0" stop-color="#616161"/><stop offset="1" stop-color="#424242"/></linearGradient><linearGradient id="h" gradientUnits="userSpaceOnUse" x1="15.876524" x2="15.876524" y1="2.89610412498" y2="28.033934"><stop offset="0" stop-color="#90a4ae"/><stop offset="1" stop-color="#78909c"/></linearGradient><linearGradient id="i"><stop offset="0" stop-color="#ffa726"/><stop offset="1" stop-color="#ffb74d"/></linearGradient><linearGradient id="j" gradientUnits="userSpaceOnUse" x1="12.56891462498" x2="12.56891462498" xlink:href="#i" y1="28.033934" y2="2.89610475004"/><linearGradient id="k" gradientUnits="userSpaceOnUse" x1="21.830221" x2="21.830221" xlink:href="#i" y1="28.033938" y2="18.77263250002"/><linearGradient id="l" gradientUnits="userSpaceOnUse" x1="24.47630875004" x2="24.47630875004" y1="28.033938" y2="16.126545"><stop offset="0" stop-color="#66bb6a"/><stop offset="1" stop-color="#81c784"/></linearGradient><linearGradient id="m" gradientUnits="userSpaceOnUse" x1="19.18413324996" x2="19.18413324996" y1="28.033938" y2="21.41871924996"><stop offset="0" stop-color="#ef5350"/><stop offset="1" stop-color="#e57373"/></linearGradient><path d="m24.476562 28.035156h2.644532v-1.324218h-2.644532zm0 0" fill="url(#b)"/><path d="m12.570312 28.035156h-2.648437v1.320313h2.648437zm0 0" fill="url(#c)"/><path d="m12.570312 28.035156h-2.648437v-1.324218h2.648437zm0 0" fill="url(#d)"/><path d="m24.476562 28.035156h2.644532v1.320313h-2.644532zm0 0" fill="url(#e)"/><path d="m12.570312 27.703125h11.90625v1.652344h-11.90625zm0 0" fill="url(#f)"/><path d="m253.975747-168.691922c111.051895 0 201.105795 90.0539 201.105795 201.105795s-90.0539 201.105796-201.105795 201.105796c-111.051896 0-201.043302-90.053901-201.043302-201.105796s89.991406-201.105795 201.043302-201.105795zm0 0" fill="url(#g)" stroke="#333" stroke-linecap="round" stroke-width="3" transform="matrix(.062506 0 0 .062506 0 13.438783)"/><path d="m3.308594 15.570312c.054687 6.914063 5.640625 12.464844 12.566406 12.464844 6.929688 0 12.515625-5.550781 12.570312-12.464844-10-7.457031-13.996093 7.3125-25.136718 0zm0 0" fill="url(#h)"/><path d="m15.875 27.953125c-6.960938 0-12.566406-5.609375-12.566406-12.570313 0-.042968 0-.082031 0-.125.066406 6.90625 5.644531 12.445313 12.566406 12.445313s12.503906-5.539063 12.570312-12.445313v.125c0 6.960938-5.605468 12.570313-12.570312 12.570313zm0 0" fill-opacity=".196078"/><path d="m15.875 2.980469c-6.960938 0-12.566406 5.605469-12.566406 12.566406v.125c.066406-6.90625 5.644531-12.445313 12.566406-12.445313s12.503906 5.539063 12.570312 12.445313c0-.042969 0-.082031 0-.125 0-6.960937-5.605468-12.566406-12.570312-12.566406zm0 0" fill="#fff" fill-opacity=".392157"/><path d="m15.875 2.800781c-7.011719 0-12.660156 5.652344-12.660156 12.664063 0 7.011718 5.648437 12.664062 12.660156 12.664062 7.015625 0 12.664062-5.652344 12.664062-12.664062 0-7.011719-5.648437-12.664063-12.664062-12.664063zm0 .1875c6.914062 0 12.476562 5.5625 12.476562 12.476563 0 6.914062-5.5625 12.476562-12.476562 12.476562-6.910156 0-12.472656-5.5625-12.472656-12.476562 0-6.914063 5.5625-12.476563 12.472656-12.476563zm0 0" fill="#212121"/><path d="m11.246094 23.402344 9.921875-7.9375-3.96875-1.324219 3.308593-6.613281-9.921874 7.9375 3.96875 1.324218zm0 0" fill="url(#j)" fill-rule="evenodd"/><path d="m20.507812 7.527344-9.921874 7.9375.582031.195312 8.789062-7.03125zm-3.023437 6.710937-.285156.566407 3.386719 1.128906.582031-.46875zm-3.214844 3.117188-3.023437 6.046875.550781-.441406 2.757813-5.511719zm0 0" fill="#fff" fill-opacity=".392157" fill-rule="evenodd"/><path d="m20.507812 8.1875-.828124.664062-2.480469 4.960938.425781.140625zm-9.046874 7.238281-.875.699219 3.542968 1.183594.425782-.851563zm8.832031.410157-8.21875 6.574218-.828125 1.65625 9.921875-7.941406zm0 0" fill-opacity=".235294" fill-rule="evenodd"/><path d="m179.920318 159.401746 158.734842-126.987873-63.493937-21.185477 52.932446-105.802396-158.734842 126.987873 63.493937 21.185477zm0 0" fill="none" stroke="#212121" stroke-width="3" transform="matrix(.062506 0 0 .062506 0 13.438783)"/><path d="m21.167969 18.773438h1.324219c.363281 0 .660156.296874.660156.660156v7.9375c0 .367187-.296875.664062-.660156.664062h-1.324219c-.363281 0-.660157-.296875-.660157-.664062v-7.9375c0-.363282.296876-.660156.660157-.660156zm0 0" fill="url(#k)"/><path d="m23.816406 16.125h1.320313c.367187 0 .664062.296875.664062.664062v10.582032c0 .367187-.296875.664062-.664062.664062h-1.320313c-.367187 0-.664062-.296875-.664062-.664062v-10.582032c0-.367187.296875-.664062.664062-.664062zm0 0" fill="url(#l)"/><path d="m18.523438 21.417969h1.320312c.367188 0 .664062.296875.664062.664062v5.289063c0 .367187-.296874.664062-.664062.664062h-1.320312c-.367188 0-.664063-.296875-.664063-.664062v-5.289063c0-.367187.296875-.664062.664063-.664062zm0 0" fill="url(#m)"/><path d="m21.167969 18.773438c-.367188 0-.660157.292968-.660157.660156v.332031c0-.367187.292969-.664063.660157-.664063h1.324219c.367187 0 .660156.296876.660156.664063v-.332031c0-.367188-.292969-.660156-.660156-.660156zm0 0" fill="#fff" fill-opacity=".392157"/><path d="m23.816406 16.125c-.367187 0-.664062.296875-.664062.664062v.328126c0-.363282.296875-.660157.664062-.660157h1.320313c.367187 0 .664062.296875.664062.660157v-.328126c0-.367187-.296875-.664062-.664062-.664062zm0 0" fill="#fff" fill-opacity=".392157"/><path d="m18.523438 21.417969c-.367188 0-.664063.296875-.664063.664062v.328125c0-.367187.296875-.660156.664063-.660156h1.320312c.367188 0 .664062.292969.664062.660156v-.328125c0-.367187-.296874-.664062-.664062-.664062zm0 0" fill="#fff" fill-opacity=".392157"/><path d="m22.492188 28.035156c.367187 0 .660156-.296875.660156-.664062v-.328125c0 .363281-.292969.660156-.660156.660156h-1.324219c-.367188 0-.660157-.296875-.660157-.660156v.328125c0 .367187.292969.664062.660157.664062zm0 0" fill-opacity=".235294"/><path d="m19.84375 28.035156c.367188 0 .664062-.296875.664062-.664062v-.328125c0 .363281-.296874.660156-.664062.660156h-1.320312c-.367188 0-.664063-.296875-.664063-.660156v.328125c0 .367187.296875.664062.664063.664062zm0 0" fill-opacity=".235294"/><path d="m25.136719 28.035156c.367187 0 .664062-.296875.664062-.664062v-.328125c0 .363281-.296875.660156-.664062.660156h-1.320313c-.367187 0-.664062-.296875-.664062-.660156v.328125c0 .367187.296875.664062.664062.664062zm0 0" fill-opacity=".235294"/><g stroke-linecap="round" stroke-width="3"><path d="m338.65516 85.346318h21.185477c5.811945 0 10.561491 4.749547 10.561491 10.561492v126.987873c0 5.874439-4.749546 10.623986-10.561491 10.623986h-21.185477c-5.811945 0-10.561491-4.749547-10.561491-10.623986v-126.987873c0-5.811945 4.749546-10.561492 10.561491-10.561492zm0 0" fill="none" stroke="#212121" stroke-linejoin="round" transform="matrix(.062506 0 0 .062506 0 13.438783)"/><path d="m381.026114 42.975365h21.122983c5.874439 0 10.623985 4.749546 10.623985 10.623985v169.296333c0 5.874439-4.749546 10.623986-10.623985 10.623986h-21.122983c-5.874439 0-10.623986-4.749547-10.623986-10.623986v-169.296333c0-5.874439 4.749547-10.623985 10.623986-10.623985zm0 0" fill="none" stroke="#212121" stroke-linejoin="round" transform="matrix(.062506 0 0 .062506 0 13.438783)"/><path d="m296.3467 127.654778h21.122983c5.874439 0 10.623986 4.749547 10.623986 10.623986v84.616919c0 5.874439-4.749547 10.623986-10.623986 10.623986h-21.122983c-5.874439 0-10.623985-4.749547-10.623985-10.623986v-84.616919c0-5.874439 4.749546-10.623986 10.623985-10.623986zm0 0" fill="none" stroke="#212121" stroke-linejoin="round" transform="matrix(.062506 0 0 .062506 0 13.438783)"/></g></svg>

<?xml version="1.0" encoding="UTF-8"?>
<svg xmlns="http://www.w3.org/2000/svg" xmlns:xlink="http://www.w3.org/1999/xlink" width="32pt" height="32pt" viewBox="0 0 32 32" version="1.1">
<defs>
<radialGradient id="radial0" gradientUnits="userSpaceOnUse" cx="450.90894" cy="189.57936" fx="450.90894" fy="189.57936" r="21.166656" gradientTransform="matrix(0.00000017417,-0.0781325,-0.140638,-0.000000101539,50.807607,63.595335)">
<stop offset="0" style="stop-color:rgb(0%,0%,0%);stop-opacity:0.313725;"/>
<stop offset="0.222222" style="stop-color:rgb(0%,0%,0%);stop-opacity:0.27451;"/>
<stop offset="1" style="stop-color:rgb(0%,0%,0%);stop-opacity:0;"/>
</radialGradient>
<radialGradient id="radial1" gradientUnits="userSpaceOnUse" cx="450.90894" cy="189.57936" fx="450.90894" fy="189.57936" r="21.166656" gradientTransform="matrix(-0.00000017417,0.0781325,0.140638,0.000000101539,-13.762403,-7.527478)">
<stop offset="0" style="stop-color:rgb(0%,0%,0%);stop-opacity:0.313725;"/>
<stop offset="0.222222" style="stop-color:rgb(0%,0%,0%);stop-opacity:0.27451;"/>
<stop offset="1" style="stop-color:rgb(0%,0%,0%);stop-opacity:0;"/>
</radialGradient>
<radialGradient id="radial2" gradientUnits="userSpaceOnUse" cx="450.90894" cy="189.57936" fx="450.90894" fy="189.57936" r="21.166656" gradientTransform="matrix(-0.00000017417,-0.0781325,0.140638,-0.000000101539,-13.762403,63.595335)">
<stop offset="0" style="stop-color:rgb(0%,0%,0%);stop-opacity:0.313725;"/>
<stop offset="0.222222" style="stop-color:rgb(0%,0%,0%);stop-opacity:0.27451;"/>
<stop offset="1" style="stop-color:rgb(0%,0%,0%);stop-opacity:0;"/>
</radialGradient>
<radialGradient id="radial3" gradientUnits="userSpaceOnUse" cx="450.90894" cy="189.57936" fx="450.90894" fy="189.57936" r="21.166656" gradientTransform="matrix(0.00000017417,0.0781325,-0.140638,0.000000101539,50.807605,-7.527478)">
<stop offset="0" style="stop-color:rgb(0%,0%,0%);stop-opacity:0.313725;"/>
<stop offset="0.222222" style="stop-color:rgb(0%,0%,0%);stop-opacity:0.27451;"/>
<stop offset="1" style="stop-color:rgb(0%,0%,0%);stop-opacity:0;"/>
</radialGradient>
<linearGradient id="linear0" gradientUnits="userSpaceOnUse" x1="255.32306" y1="233.5" x2="255.32304" y2="254.66666" gradientTransform="matrix(0.0133601,0,0,0.062506,11.473103,13.438787)">
<stop offset="0" style="stop-color:rgb(0%,0%,0%);stop-opacity:0.27451;"/>
<stop offset="1" style="stop-color:rgb(0%,0%,0%);stop-opacity:0;"/>
</linearGradient>
<linearGradient id="linear1" gradientUnits="userSpaceOnUse" x1="254" y1="-168.66667" x2="254" y2="233.5" >
<stop offset="0" style="stop-color:rgb(38.039216%,38.039216%,38.039216%);stop-opacity:1;"/>
<stop offset="1" style="stop-color:rgb(25.882353%,25.882353%,25.882353%);stop-opacity:1;"/>
</linearGradient>
<linearGradient id="linear2" gradientUnits="userSpaceOnUse" x1="254" y1="-168.66667" x2="254" y2="233.5" gradientTransform="matrix(0.062506,0,0,0.062506,0,13.438783)">
<stop offset="0" style="stop-color:rgb(56.470588%,64.313725%,68.235294%);stop-opacity:1;"/>
<stop offset="1" style="stop-color:rgb(47.058824%,56.470588%,61.176471%);stop-opacity:1;"/>
</linearGradient>
<linearGradient id="linear3" gradientUnits="userSpaceOnUse" x1="201.08333" y1="233.5" x2="201.08333" y2="-168.66666" gradientTransform="matrix(0.062506,0,0,0.062506,0,13.438783)">
<stop offset="0" style="stop-color:rgb(100%,65.490196%,14.901961%);stop-opacity:1;"/>
<stop offset="1" style="stop-color:rgb(100%,71.764706%,30.196078%);stop-opacity:1;"/>
</linearGradient>
<linearGradient id="linear4" gradientUnits="userSpaceOnUse" x1="381" y1="233.5" x2="381" y2="85.333336" gradientTransform="matrix(0.062506,0,0,0.062506,-1.984565,13.438787)">
<stop offset="0" style="stop-color:rgb(100%,65.490196%,14.901961%);stop-opacity:1;"/>
<stop offset="1" style="stop-color:rgb(100%,71.764706%,30.196078%);stop-opacity:1;"/>
</linearGradient>
<linearGradient id="linear5" gradientUnits="userSpaceOnUse" x1="423.33334" y1="233.5" x2="423.33334" y2="43" gradientTransform="matrix(0.062506,0,0,0.062506,-1.984565,13.438787)">
<stop offset="0" style="stop-color:rgb(40%,73.333333%,41.568627%);stop-opacity:1;"/>
<stop offset="1" style="stop-color:rgb(50.588235%,78.039216%,51.764706%);stop-opacity:1;"/>
</linearGradient>
<linearGradient id="linear6" gradientUnits="userSpaceOnUse" x1="338.66666" y1="233.5" x2="338.66666" y2="127.66666" gradientTransform="matrix(0.062506,0,0,0.062506,-1.984565,13.438787)">
<stop offset="0" style="stop-color:rgb(93.72549%,32.54902%,31.372549%);stop-opacity:1;"/>
<stop offset="1" style="stop-color:rgb(89.803922%,45.098039%,45.098039%);stop-opacity:1;"/>
</linearGradient>
</defs>
<g id="surface1">
<path style=" stroke:none;fill-rule:nonzero;fill:url(#radial0);" d="M 24.476562 28.035156 L 27.121094 28.035156 L 27.121094 26.710938 L 24.476562 26.710938 Z M 24.476562 28.035156 "/>
<path style=" stroke:none;fill-rule:nonzero;fill:url(#radial1);" d="M 12.570312 28.035156 L 9.921875 28.035156 L 9.921875 29.355469 L 12.570312 29.355469 Z M 12.570312 28.035156 "/>
<path style=" stroke:none;fill-rule:nonzero;fill:url(#radial2);" d="M 12.570312 28.035156 L 9.921875 28.035156 L 9.921875 26.710938 L 12.570312 26.710938 Z M 12.570312 28.035156 "/>
<path style=" stroke:none;fill-rule:nonzero;fill:url(#radial3);" d="M 24.476562 28.035156 L 27.121094 28.035156 L 27.121094 29.355469 L 24.476562 29.355469 Z M 24.476562 28.035156 "/>
<path style=" stroke:none;fill-rule:nonzero;fill:url(#linear0);" d="M 12.570312 27.703125 L 24.476562 27.703125 L 24.476562 29.355469 L 12.570312 29.355469 Z M 12.570312 27.703125 "/>
<path style="fill-rule:nonzero;fill:url(#linear1);stroke-width:3;stroke-linecap:round;stroke-linejoin:miter;stroke:rgb(20%,20%,20%);stroke-opacity:1;stroke-miterlimit:4;" d="M 253.975747 -168.691922 C 365.027642 -168.691922 455.081542 -78.638022 455.081542 32.413873 C 455.081542 143.465768 365.027642 233.519669 253.975747 233.519669 C 142.923851 233.519669 52.932445 143.465768 52.932445 32.413873 C 52.932445 -78.638022 142.923851 -168.691922 253.975747 -168.691922 Z M 253.975747 -168.691922 " transform="matrix(0.062506,0,0,0.062506,0,13.438783)"/>
<path style=" stroke:none;fill-rule:nonzero;fill:url(#linear2);" d="M 3.308594 15.570312 C 3.363281 22.484375 8.949219 28.035156 15.875 28.035156 C 22.804688 28.035156 28.390625 22.484375 28.445312 15.570312 C 18.445312 8.113281 14.449219 22.882812 3.308594 15.570312 Z M 3.308594 15.570312 "/>
<path style=" stroke:none;fill-rule:nonzero;fill:rgb(0%,0%,0%);fill-opacity:0.196078;" d="M 15.875 27.953125 C 8.914062 27.953125 3.308594 22.34375 3.308594 15.382812 C 3.308594 15.339844 3.308594 15.300781 3.308594 15.257812 C 3.375 22.164062 8.953125 27.703125 15.875 27.703125 C 22.796875 27.703125 28.378906 22.164062 28.445312 15.257812 C 28.445312 15.300781 28.445312 15.339844 28.445312 15.382812 C 28.445312 22.34375 22.839844 27.953125 15.875 27.953125 Z M 15.875 27.953125 "/>
<path style=" stroke:none;fill-rule:nonzero;fill:rgb(100%,100%,100%);fill-opacity:0.392157;" d="M 15.875 2.980469 C 8.914062 2.980469 3.308594 8.585938 3.308594 15.546875 C 3.308594 15.589844 3.308594 15.628906 3.308594 15.671875 C 3.375 8.765625 8.953125 3.226562 15.875 3.226562 C 22.796875 3.226562 28.378906 8.765625 28.445312 15.671875 C 28.445312 15.628906 28.445312 15.589844 28.445312 15.546875 C 28.445312 8.585938 22.839844 2.980469 15.875 2.980469 Z M 15.875 2.980469 "/>
<path style=" stroke:none;fill-rule:nonzero;fill:rgb(12.941176%,12.941176%,12.941176%);fill-opacity:1;" d="M 15.875 2.800781 C 8.863281 2.800781 3.214844 8.453125 3.214844 15.464844 C 3.214844 22.476562 8.863281 28.128906 15.875 28.128906 C 22.890625 28.128906 28.539062 22.476562 28.539062 15.464844 C 28.539062 8.453125 22.890625 2.800781 15.875 2.800781 Z M 15.875 2.988281 C 22.789062 2.988281 28.351562 8.550781 28.351562 15.464844 C 28.351562 22.378906 22.789062 27.941406 15.875 27.941406 C 8.964844 27.941406 3.402344 22.378906 3.402344 15.464844 C 3.402344 8.550781 8.964844 2.988281 15.875 2.988281 Z M 15.875 2.988281 "/>
<path style=" stroke:none;fill-rule:evenodd;fill:url(#linear3);" d="M 11.246094 23.402344 L 21.167969 15.464844 L 17.199219 14.140625 L 20.507812 7.527344 L 10.585938 15.464844 L 14.554688 16.789062 Z M 11.246094 23.402344 "/>
<path style=" stroke:none;fill-rule:evenodd;fill:rgb(100%,100%,100%);fill-opacity:0.392157;" d="M 20.507812 7.527344 L 10.585938 15.464844 L 11.167969 15.660156 L 19.957031 8.628906 Z M 17.484375 14.238281 L 17.199219 14.804688 L 20.585938 15.933594 L 21.167969 15.464844 Z M 14.269531 17.355469 L 11.246094 23.402344 L 11.796875 22.960938 L 14.554688 17.449219 Z M 14.269531 17.355469 "/>
<path style=" stroke:none;fill-rule:evenodd;fill:rgb(0%,0%,0%);fill-opacity:0.235294;" d="M 20.507812 8.1875 L 19.679688 8.851562 L 17.199219 13.8125 L 17.625 13.953125 Z M 11.460938 15.425781 L 10.585938 16.125 L 14.128906 17.308594 L 14.554688 16.457031 Z M 20.292969 15.835938 L 12.074219 22.410156 L 11.246094 24.066406 L 21.167969 16.125 Z M 20.292969 15.835938 "/>
<path style="fill:none;stroke-width:3;stroke-linecap:butt;stroke-linejoin:miter;stroke:rgb(12.941176%,12.941176%,12.941176%);stroke-opacity:1;stroke-miterlimit:4;" d="M 179.920318 159.401746 L 338.65516 32.413873 L 275.161223 11.228396 L 328.093669 -94.574 L 169.358827 32.413873 L 232.852764 53.59935 Z M 179.920318 159.401746 " transform="matrix(0.062506,0,0,0.062506,0,13.438783)"/>
<path style=" stroke:none;fill-rule:nonzero;fill:url(#linear4);" d="M 21.167969 18.773438 L 22.492188 18.773438 C 22.855469 18.773438 23.152344 19.070312 23.152344 19.433594 L 23.152344 27.371094 C 23.152344 27.738281 22.855469 28.035156 22.492188 28.035156 L 21.167969 28.035156 C 20.804688 28.035156 20.507812 27.738281 20.507812 27.371094 L 20.507812 19.433594 C 20.507812 19.070312 20.804688 18.773438 21.167969 18.773438 Z M 21.167969 18.773438 "/>
<path style=" stroke:none;fill-rule:nonzero;fill:url(#linear5);" d="M 23.816406 16.125 L 25.136719 16.125 C 25.503906 16.125 25.800781 16.421875 25.800781 16.789062 L 25.800781 27.371094 C 25.800781 27.738281 25.503906 28.035156 25.136719 28.035156 L 23.816406 28.035156 C 23.449219 28.035156 23.152344 27.738281 23.152344 27.371094 L 23.152344 16.789062 C 23.152344 16.421875 23.449219 16.125 23.816406 16.125 Z M 23.816406 16.125 "/>
<path style=" stroke:none;fill-rule:nonzero;fill:url(#linear6);" d="M 18.523438 21.417969 L 19.84375 21.417969 C 20.210938 21.417969 20.507812 21.714844 20.507812 22.082031 L 20.507812 27.371094 C 20.507812 27.738281 20.210938 28.035156 19.84375 28.035156 L 18.523438 28.035156 C 18.15625 28.035156 17.859375 27.738281 17.859375 27.371094 L 17.859375 22.082031 C 17.859375 21.714844 18.15625 21.417969 18.523438 21.417969 Z M 18.523438 21.417969 "/>
<path style=" stroke:none;fill-rule:nonzero;fill:rgb(100%,100%,100%);fill-opacity:0.392157;" d="M 21.167969 18.773438 C 20.800781 18.773438 20.507812 19.066406 20.507812 19.433594 L 20.507812 19.765625 C 20.507812 19.398438 20.800781 19.101562 21.167969 19.101562 L 22.492188 19.101562 C 22.859375 19.101562 23.152344 19.398438 23.152344 19.765625 L 23.152344 19.433594 C 23.152344 19.066406 22.859375 18.773438 22.492188 18.773438 Z M 21.167969 18.773438 "/>
<path style=" stroke:none;fill-rule:nonzero;fill:rgb(100%,100%,100%);fill-opacity:0.392157;" d="M 23.816406 16.125 C 23.449219 16.125 23.152344 16.421875 23.152344 16.789062 L 23.152344 17.117188 C 23.152344 16.753906 23.449219 16.457031 23.816406 16.457031 L 25.136719 16.457031 C 25.503906 16.457031 25.800781 16.753906 25.800781 17.117188 L 25.800781 16.789062 C 25.800781 16.421875 25.503906 16.125 25.136719 16.125 Z M 23.816406 16.125 "/>
<path style=" stroke:none;fill-rule:nonzero;fill:rgb(100%,100%,100%);fill-opacity:0.392157;" d="M 18.523438 21.417969 C 18.15625 21.417969 17.859375 21.714844 17.859375 22.082031 L 17.859375 22.410156 C 17.859375 22.042969 18.15625 21.75 18.523438 21.75 L 19.84375 21.75 C 20.210938 21.75 20.507812 22.042969 20.507812 22.410156 L 20.507812 22.082031 C 20.507812 21.714844 20.210938 21.417969 19.84375 21.417969 Z M 18.523438 21.417969 "/>
<path style=" stroke:none;fill-rule:nonzero;fill:rgb(0%,0%,0%);fill-opacity:0.235294;" d="M 22.492188 28.035156 C 22.859375 28.035156 23.152344 27.738281 23.152344 27.371094 L 23.152344 27.042969 C 23.152344 27.40625 22.859375 27.703125 22.492188 27.703125 L 21.167969 27.703125 C 20.800781 27.703125 20.507812 27.40625 20.507812 27.042969 L 20.507812 27.371094 C 20.507812 27.738281 20.800781 28.035156 21.167969 28.035156 Z M 22.492188 28.035156 "/>
<path style=" stroke:none;fill-rule:nonzero;fill:rgb(0%,0%,0%);fill-opacity:0.235294;" d="M 19.84375 28.035156 C 20.210938 28.035156 20.507812 27.738281 20.507812 27.371094 L 20.507812 27.042969 C 20.507812 27.40625 20.210938 27.703125 19.84375 27.703125 L 18.523438 27.703125 C 18.15625 27.703125 17.859375 27.40625 17.859375 27.042969 L 17.859375 27.371094 C 17.859375 27.738281 18.15625 28.035156 18.523438 28.035156 Z M 19.84375 28.035156 "/>
<path style=" stroke:none;fill-rule:nonzero;fill:rgb(0%,0%,0%);fill-opacity:0.235294;" d="M 25.136719 28.035156 C 25.503906 28.035156 25.800781 27.738281 25.800781 27.371094 L 25.800781 27.042969 C 25.800781 27.40625 25.503906 27.703125 25.136719 27.703125 L 23.816406 27.703125 C 23.449219 27.703125 23.152344 27.40625 23.152344 27.042969 L 23.152344 27.371094 C 23.152344 27.738281 23.449219 28.035156 23.816406 28.035156 Z M 25.136719 28.035156 "/>
<path style="fill:none;stroke-width:3;stroke-linecap:round;stroke-linejoin:round;stroke:rgb(12.941176%,12.941176%,12.941176%);stroke-opacity:1;stroke-miterlimit:4;" d="M 338.65516 85.346318 L 359.840637 85.346318 C 365.652582 85.346318 370.402128 90.095865 370.402128 95.90781 L 370.402128 222.895683 C 370.402128 228.770122 365.652582 233.519669 359.840637 233.519669 L 338.65516 233.519669 C 332.843215 233.519669 328.093669 228.770122 328.093669 222.895683 L 328.093669 95.90781 C 328.093669 90.095865 332.843215 85.346318 338.65516 85.346318 Z M 338.65516 85.346318 " transform="matrix(0.062506,0,0,0.062506,0,13.438783)"/>
<path style="fill:none;stroke-width:3;stroke-linecap:round;stroke-linejoin:round;stroke:rgb(12.941176%,12.941176%,12.941176%);stroke-opacity:1;stroke-miterlimit:4;" d="M 381.026114 42.975365 L 402.149097 42.975365 C 408.023536 42.975365 412.773082 47.724911 412.773082 53.59935 L 412.773082 222.895683 C 412.773082 228.770122 408.023536 233.519669 402.149097 233.519669 L 381.026114 233.519669 C 375.151675 233.519669 370.402128 228.770122 370.402128 222.895683 L 370.402128 53.59935 C 370.402128 47.724911 375.151675 42.975365 381.026114 42.975365 Z M 381.026114 42.975365 " transform="matrix(0.062506,0,0,0.062506,0,13.438783)"/>
<path style="fill:none;stroke-width:3;stroke-linecap:round;stroke-linejoin:round;stroke:rgb(12.941176%,12.941176%,12.941176%);stroke-opacity:1;stroke-miterlimit:4;" d="M 296.3467 127.654778 L 317.469683 127.654778 C 323.344122 127.654778 328.093669 132.404325 328.093669 138.278764 L 328.093669 222.895683 C 328.093669 228.770122 323.344122 233.519669 317.469683 233.519669 L 296.3467 233.519669 C 290.472261 233.519669 285.722715 228.770122 285.722715 222.895683 L 285.722715 138.278764 C 285.722715 132.404325 290.472261 127.654778 296.3467 127.654778 Z M 296.3467 127.654778 " transform="matrix(0.062506,0,0,0.062506,0,13.438783)"/>
</g>
</svg>
